src/assets/img/providers/gamzix.svg

<svg width="100" height="22" viewBox="0 0 100 22" fill="none" xmlns="http://www.w3.org/2000/svg">
<g clip-path="url(#clip0_4132_7113)">
<path fill-rule="evenodd" clip-rule="evenodd" d="M20.7144 16.6434C21.3442 15.5251 21.745 14.3211 21.9169 13.0316C21.9874 12.5337 22.0139 12.0105 21.9965 11.4618C21.9902 11.2699 21.9828 11.0746 21.9743 10.8759C21.9737 10.8594 21.9651 10.8511 21.9486 10.8511H11.6451C11.6285 10.8511 11.6202 10.8592 11.6202 10.8755V14.5107C11.6202 14.527 11.6284 14.5351 11.6446 14.5351H16.8643H17.5648L17.5689 14.5362L17.5719 14.5391L17.5732 14.543L17.5731 14.5451L17.5725 14.5471C17.2694 15.1972 16.8793 15.8104 16.3881 16.3384C15.073 17.7511 13.1773 18.1716 11.2704 18.0367C10.128 17.9556 9.0921 17.6515 8.1626 17.1245C7.66235 16.8408 7.19293 16.4926 6.75433 16.0797C5.32021 14.73 4.56996 13.0406 4.53099 11.1076C4.4993 9.5386 4.9301 8.0698 5.89103 6.82067C6.99885 5.38184 8.54516 4.41876 10.3527 4.13142C12.2651 3.82738 14.2123 4.18623 15.8562 5.21397C16.5499 5.64733 17.182 6.16977 17.7524 6.78127L17.7561 6.78458L17.7616 6.78786C17.765 6.78942 17.7688 6.79026 17.7726 6.79034C17.7764 6.79042 17.7801 6.78974 17.7837 6.78832C17.7872 6.78691 17.7904 6.7848 17.7931 6.78213L20.5196 4.08432C20.5299 4.07433 20.5301 4.06405 20.5204 4.05349C20.0505 3.5419 19.5384 3.05886 18.984 2.60438C17.918 1.72994 16.708 1.09888 15.3539 0.711198C13.5545 0.195616 11.7269 0.062153 9.87094 0.310808C7.73468 0.597148 5.87476 1.42974 4.29119 2.80947C2.56081 4.26066 1.41826 6.19148 0.863258 8.3706C0.379656 10.3313 0.429614 12.2835 1.01312 14.2262C1.34885 15.3421 1.85558 16.356 2.53332 17.2678C2.82479 17.6598 3.16723 18.0682 3.56062 18.4939C4.95549 20.0452 6.68608 21.0343 8.7524 21.4614L9.03717 21.5368C10.1177 21.7595 11.2268 21.8471 12.3645 21.7997C13.4896 21.7529 14.5683 21.5463 15.6006 21.1812C17.8314 20.3523 19.5903 18.7255 20.7144 16.6434ZM80.5784 2.30255C79.179 1.67649 77.517 1.69062 76.1476 2.30255C75.8532 2.43387 75.5879 2.60573 75.3515 2.81813C75.3327 2.83498 75.3265 2.83126 75.3331 2.807C75.5115 2.14953 75.7943 1.59898 76.1814 1.15534C76.8893 0.344282 77.8429 0.080496 78.8895 0.232515C79.7982 0.36398 80.5292 0.846588 80.9938 1.65764C81.1959 2.01022 81.3301 2.38962 81.3963 2.79586C81.4017 2.82841 81.3922 2.83369 81.3676 2.81171C81.1375 2.60473 80.8745 2.43501 80.5784 2.30255ZM26.0736 17.7016L24.5924 21.452C24.5914 21.4546 24.5896 21.4568 24.5874 21.4584C24.5851 21.46 24.5824 21.4609 24.5796 21.461H20.9898C20.9875 21.461 20.9852 21.4604 20.9831 21.4594C20.9811 21.4583 20.9793 21.4567 20.978 21.4548C20.9767 21.4529 20.9759 21.4507 20.9756 21.4485C20.9755 21.4474 20.9755 21.4464 20.9756 21.4453C20.9757 21.4441 20.976 21.4429 20.9765 21.4417L28.0143 3.18907C28.0154 3.1864 28.0172 3.18412 28.0196 3.18251C28.022 3.1809 28.0248 3.18006 28.0276 3.18008L31.5412 3.18051C31.5441 3.18048 31.5469 3.18133 31.5492 3.18294C31.5516 3.18454 31.5534 3.18683 31.5545 3.1895L38.5739 21.4417C38.5748 21.4438 38.5751 21.4462 38.5748 21.4485C38.5745 21.4507 38.5737 21.4529 38.5724 21.4548C38.5711 21.4567 38.5693 21.4583 38.5673 21.4594C38.5652 21.4604 38.563 21.461 38.5606 21.461H34.9717C34.9688 21.461 34.966 21.4601 34.9637 21.4585C34.9613 21.4569 34.9595 21.4546 34.9584 21.452L33.5337 17.7016C33.5327 17.6989 33.5309 17.6966 33.5285 17.695C33.5261 17.6934 33.5233 17.6926 33.5205 17.6926H26.0865C26.0837 17.6926 26.081 17.6935 26.0787 17.6951C26.0764 17.6967 26.0747 17.699 26.0736 17.7016ZM27.3673 14.2775C27.3669 14.2785 27.3666 14.2796 27.3664 14.2807C27.3662 14.282 27.3662 14.2834 27.3663 14.2847C27.3666 14.2872 27.3675 14.2895 27.3689 14.2916C27.3703 14.2936 27.3721 14.2952 27.3743 14.2964C27.3765 14.2975 27.379 14.2981 27.3814 14.2981H32.2212C32.2237 14.2981 32.2261 14.2975 32.2283 14.2964C32.2305 14.2952 32.2324 14.2936 32.2338 14.2916C32.2352 14.2895 32.2361 14.2872 32.2363 14.2847C32.2366 14.2823 32.2363 14.2798 32.2354 14.2775L29.8155 8.06611C29.8144 8.06319 29.8125 8.06066 29.81 8.05887C29.8074 8.05708 29.8044 8.05612 29.8013 8.05612C29.7982 8.05612 29.7952 8.05708 29.7927 8.05887C29.7901 8.06066 29.7882 8.06319 29.7872 8.06611L27.3673 14.2775ZM54.9347 3.19849L50.6743 15.9039C50.67 15.9167 50.6657 15.9167 50.6614 15.9039L46.437 3.19164C46.4347 3.18422 46.4296 3.18051 46.4216 3.18051L43.0493 3.18008C43.0466 3.18007 43.0439 3.18109 43.0418 3.18297C43.0397 3.18485 43.0382 3.18747 43.0377 3.19036L39.8787 21.4383C39.8762 21.4534 39.8826 21.461 39.898 21.461H43.2488C43.2628 21.461 43.2711 21.4541 43.2737 21.4404L45.2688 9.961C45.2736 9.93331 45.2805 9.93288 45.2893 9.95972L49.1151 21.4378C49.1202 21.4532 49.1311 21.461 49.1476 21.461H52.1679C52.1833 21.461 52.1934 21.4537 52.1983 21.4391L56.0583 9.96229C56.0677 9.93459 56.0749 9.93517 56.0797 9.964L58.029 21.4485C58.0304 21.4568 58.0354 21.461 58.044 21.461H61.3756C61.3913 21.461 61.3978 21.4532 61.3953 21.4378L58.3365 3.20149C58.3342 3.1875 58.3259 3.18051 58.3116 3.18051L54.9603 3.18008C54.9475 3.18008 54.9389 3.18622 54.9347 3.19849ZM69.12 6.62279H63.2105C63.207 6.62279 63.2036 6.62139 63.2011 6.6189C63.1986 6.61641 63.1972 6.61303 63.1972 6.60951L63.1977 3.19443C63.1977 3.19091 63.1991 3.18753 63.2015 3.18504C63.204 3.18255 63.2074 3.18115 63.2109 3.18115H74.2381C74.2394 3.18118 74.2407 3.18139 74.2419 3.18177L74.2443 3.18281C74.2462 3.18387 74.2478 3.18536 74.249 3.18718C74.2502 3.189 74.2509 3.19108 74.2511 3.19324C74.2513 3.19539 74.251 3.19757 74.2501 3.19957L67.7608 18.0949C67.76 18.0969 67.7596 18.0991 67.7598 18.1012C67.76 18.1034 67.7607 18.1055 67.7619 18.1073C67.7631 18.1091 67.7647 18.1106 67.7666 18.1117C67.7685 18.1127 67.7706 18.1133 67.7728 18.1133H73.8228C73.8263 18.1133 73.8297 18.1147 73.8321 18.1172C73.8346 18.1197 73.836 18.1231 73.836 18.1266V21.4483C73.836 21.4518 73.8346 21.4552 73.8321 21.4577C73.8297 21.4602 73.8263 21.4616 73.8228 21.4616H62.6812C62.6791 21.4616 62.6769 21.461 62.675 21.4599C62.6731 21.4589 62.6715 21.4574 62.6703 21.4556C62.6692 21.4538 62.6684 21.4517 62.6682 21.4495L62.6682 21.4481C62.6682 21.4464 62.6686 21.4447 62.6692 21.4432L69.132 6.6412C69.1328 6.6392 69.1332 6.63703 69.133 6.63487C69.1328 6.63271 69.1321 6.63063 69.1309 6.62882C69.1302 6.62781 69.1294 6.6269 69.1285 6.62611C69.1278 6.62547 69.127 6.62492 69.1262 6.62445C69.1243 6.6234 69.1222 6.62283 69.12 6.62279ZM76.6615 3.18008H80.0761C80.0875 3.18008 80.0967 3.18928 80.0967 3.20063V21.4413C80.0967 21.4526 80.0875 21.4618 80.0761 21.4618H76.6615C76.6501 21.4618 76.6409 21.4526 76.6409 21.4413V3.20063C76.6409 3.18928 76.6501 3.18008 76.6615 3.18008ZM90.5911 9.02554L94.4216 3.18628C94.4229 3.18432 94.4247 3.1827 94.4268 3.18159C94.4277 3.18112 94.4286 3.18074 94.4295 3.18046C94.4308 3.18007 94.4322 3.17987 94.4336 3.17986H98.3129C98.3155 3.1798 98.3182 3.18047 98.3205 3.1818C98.3228 3.18314 98.3247 3.18508 98.326 3.18743C98.3273 3.18977 98.3279 3.19242 98.3278 3.19509C98.3276 3.19776 98.3268 3.20034 98.3253 3.20256L92.5468 12.0334L92.5459 12.0349C92.5449 12.037 92.5443 12.0392 92.5443 12.0415C92.5443 12.0429 92.5445 12.0443 92.5449 12.0456C92.5453 12.0471 92.546 12.0484 92.5468 12.0497L98.6927 21.4385C98.6942 21.4407 98.6951 21.4433 98.6952 21.4459C98.6952 21.4472 98.6951 21.4485 98.6948 21.4498C98.6945 21.4511 98.6941 21.4524 98.6934 21.4536C98.6921 21.4559 98.6902 21.4579 98.6879 21.4592C98.6856 21.4606 98.6829 21.4612 98.6803 21.4612L94.7959 21.4607C94.7935 21.4607 94.7912 21.4601 94.7891 21.459C94.787 21.4579 94.7852 21.4563 94.7839 21.4543L90.5946 15.0537C90.5941 15.053 90.5937 15.0525 90.5932 15.0519C90.5927 15.0515 90.5923 15.0511 90.5918 15.0507C90.591 15.05 90.5902 15.0495 90.5893 15.049C90.5873 15.0479 90.5849 15.0473 90.5826 15.0473C90.5802 15.0473 90.5779 15.0479 90.5758 15.049L90.5738 15.0503C90.5725 15.0512 90.5715 15.0524 90.5706 15.0537L86.383 21.4543C86.3817 21.4563 86.3799 21.4579 86.3778 21.459C86.3757 21.4601 86.3734 21.4607 86.371 21.4607H82.4617C82.4591 21.4607 82.4565 21.46 82.4543 21.4586C82.4532 21.458 82.4521 21.4571 82.4513 21.4562C82.4503 21.4552 82.4496 21.4542 82.4489 21.453C82.4477 21.4506 82.4471 21.448 82.4473 21.4454C82.4474 21.4428 82.4483 21.4402 82.4497 21.438L88.6127 12.0424C88.6144 12.04 88.6152 12.0371 88.6152 12.0342C88.6152 12.0313 88.6144 12.0285 88.6127 12.0261L82.8369 3.20256C82.8354 3.20034 82.8345 3.19776 82.8344 3.19509C82.8343 3.19242 82.8349 3.18977 82.8362 3.18743C82.8374 3.18508 82.8393 3.18314 82.8416 3.1818C82.844 3.18047 82.8466 3.1798 82.8493 3.17986L86.7328 3.179C86.7352 3.17902 86.7375 3.17961 86.7396 3.18073C86.7417 3.18185 86.7435 3.18346 86.7448 3.18543L90.5671 9.02554C90.5685 9.02749 90.5703 9.02908 90.5724 9.03017C90.5745 9.03127 90.5768 9.03184 90.5791 9.03184C90.5802 9.03184 90.5813 9.03173 90.5823 9.03149C90.5831 9.03132 90.5839 9.03108 90.5846 9.03079C90.585 9.0306 90.5855 9.0304 90.5859 9.03017C90.5871 9.02955 90.5882 9.02877 90.5891 9.02786C90.5899 9.02716 90.5906 9.02639 90.5911 9.02554Z" fill="#919EAB"/>
</g>
<defs>
<clipPath id="clip0_4132_7113">
<rect width="99" height="22" fill="white" transform="translate(0.5 0.000976562)"/>
</clipPath>
</defs>
</svg>

<svg width="100" height="22" fill="none" xmlns="http://www.w3.org/2000/svg"><g clip-path="url(#a)"><path fill-rule="evenodd" clip-rule="evenodd" d="M20.714 16.643a9.979 9.979 0 0 0 1.203-3.611c.07-.498.097-1.021.08-1.57a59.034 59.034 0 0 0-.023-.586c0-.017-.009-.025-.025-.025H11.645c-.016 0-.025.008-.025.024v3.636c0 .016.008.024.025.024h5.92l.004.001.003.003.001.004v.004a6.897 6.897 0 0 1-1.185 1.791c-1.315 1.413-3.21 1.834-5.118 1.699-1.142-.081-2.178-.386-3.107-.912a7.32 7.32 0 0 1-1.409-1.045c-1.434-1.35-2.184-3.04-2.223-4.972-.032-1.57.4-3.038 1.36-4.287 1.108-1.44 2.654-2.402 4.462-2.69 1.912-.304 3.86.055 5.503 1.083a9.386 9.386 0 0 1 1.896 1.567l.004.004.006.003a.028.028 0 0 0 .031-.006l2.727-2.698c.01-.01.01-.02 0-.03-.47-.512-.982-.995-1.536-1.45a9.998 9.998 0 0 0-3.63-1.893 13.29 13.29 0 0 0-5.483-.4C7.735.597 5.875 1.43 4.29 2.809 2.561 4.261 1.418 6.191.863 8.371a10.917 10.917 0 0 0 .15 5.855 9.778 9.778 0 0 0 1.52 3.042c.292.392.634.8 1.028 1.226 1.394 1.551 3.125 2.54 5.191 2.967l.285.076c1.08.223 2.19.31 3.327.263a11.024 11.024 0 0 0 3.237-.619c2.23-.829 3.99-2.456 5.113-4.538Zm59.864-14.34a5.518 5.518 0 0 0-4.43 0 3.03 3.03 0 0 0-.796.515c-.02.017-.026.013-.019-.011.178-.657.461-1.208.848-1.652C76.89.345 77.843.08 78.89.233c.908.131 1.64.614 2.104 1.425.202.352.336.732.402 1.138.006.032-.004.038-.028.016a3.006 3.006 0 0 0-.79-.51ZM26.074 17.702l-1.482 3.75a.014.014 0 0 1-.005.006.015.015 0 0 1-.007.003h-3.59c-.002 0-.005 0-.007-.002a.015.015 0 0 1-.008-.01v-.004l.002-.003 7.037-18.253a.014.014 0 0 1 .014-.009h3.513c.003 0 .006.001.008.003a.014.014 0 0 1 .006.006l7.019 18.253v.006a.015.015 0 0 1-.007.011.015.015 0 0 1-.006.002h-3.59c-.002 0-.005 0-.007-.002a.015.015 0 0 1-.006-.007l-1.424-3.75a.014.014 0 0 0-.005-.007.014.014 0 0 0-.009-.002h-7.434c-.002 0-.005 0-.007.002a.015.015 0 0 0-.005.007Zm1.293-3.425v.008c0 .002 0 .005.002.007a.016.016 0 0 0 .005.004.016.016 0 0 0 .007.002h4.84c.003 0 .005 0 .007-.002a.014.014 0 0 0 .008-.012v-.007l-2.42-6.21a.016.016 0 0 0-.006-.008.015.015 0 0 0-.009-.003.015.015 0 0 0-.008.003.014.014 0 0 0-.006.007l-2.42 6.211ZM54.935 3.198l-4.26 12.706c-.005.013-.01.013-.014 0L46.437 3.192c-.002-.008-.007-.011-.015-.011h-3.373a.011.011 0 0 0-.007.002.013.013 0 0 0-.004.007l-3.16 18.248c-.002.015.005.023.02.023h3.35c.015 0 .023-.007.026-.02l1.995-11.48c.005-.028.012-.028.02-.001l3.826 11.478c.005.015.016.023.033.023h3.02c.015 0 .025-.007.03-.022l3.86-11.477c.01-.027.017-.027.022.002l1.949 11.484c.001.009.006.013.015.013h3.332c.015 0 .022-.008.02-.023L58.335 3.2c-.002-.014-.01-.02-.024-.02H54.96c-.013 0-.021.005-.025.017ZM69.12 6.623h-5.91a.013.013 0 0 1-.013-.013V3.194c0-.003.002-.006.005-.009a.013.013 0 0 1 .009-.004H74.242l.002.002a.013.013 0 0 1 .007.01V3.2l-6.49 14.895a.013.013 0 0 0 .006.017.013.013 0 0 0 .006.001h6.05c.003 0 .007.002.01.004a.013.013 0 0 1 .003.01v3.321a.013.013 0 0 1-.013.014H62.68l-.006-.002a.013.013 0 0 1-.007-.01v-.002l.001-.005 6.463-14.802.001-.006a.013.013 0 0 0-.007-.01.013.013 0 0 0-.006-.002Zm7.541-3.443h3.415c.012 0 .02.01.02.02v18.241a.02.02 0 0 1-.02.02h-3.414a.02.02 0 0 1-.021-.02V3.201c0-.012.01-.02.02-.02Zm13.93 5.846 3.83-5.84a.014.014 0 0 1 .008-.006h3.884a.015.015 0 0 1 .013.007.015.015 0 0 1 0 .016l-5.78 8.83v.002a.014.014 0 0 0-.001.01l.002.005 6.146 9.389a.014.014 0 0 1 0 .015.015.015 0 0 1-.013.007h-3.884a.015.015 0 0 1-.012-.007l-4.19-6.4v-.002l-.002-.001-.003-.002a.014.014 0 0 0-.013 0l-.002.001a.013.013 0 0 0-.003.004l-4.188 6.4a.015.015 0 0 1-.012.006h-3.91l-.007-.001a.015.015 0 0 1-.005-.006.015.015 0 0 1 0-.015l6.164-9.396a.014.014 0 0 0 .002-.008c0-.003 0-.006-.002-.008l-5.776-8.823a.014.014 0 0 1 0-.016.014.014 0 0 1 .005-.005.015.015 0 0 1 .007-.002l3.884-.001a.015.015 0 0 1 .012.006l3.822 5.84a.015.015 0 0 0 .012.007.014.014 0 0 0 .006-.001.013.013 0 0 0 .004-.003l.002-.002Z" fill="#919EAB"/></g><defs><clipPath id="a"><path fill="#fff" transform="translate(.5 .001)" d="M0 0h99v22H0z"/></clipPath></defs></svg>
